icons/svg/save-as.svg

<svg width="24" height="24" viewBox="0 0 24 24" fill="none" xmlns="http://www.w3.org/2000/svg">
<path d="M7.55769 3.75V5.01923C7.55769 6.11394 7.55769 6.6613 7.76618 7.0814C7.96037 7.47268 8.27732 7.78963 8.6686 7.98382C9.0887 8.19231 9.63606 8.19231 10.7308 8.19231C11.8255 8.19231 12.3728 8.19231 12.7929 7.98382C13.1842 7.78963 13.5012 7.47268 13.6954 7.0814C13.9038 6.6613 13.9038 6.11394 13.9038 5.01923V3.75M7.55769 3.75H13.9038M7.55769 3.75C6.80699 3.75 6.43163 3.75 6.12036 3.81682C4.96618 4.06458 4.06458 4.96618 3.81682 6.12036C3.75 6.43163 3.75 6.80699 3.75 7.55769V17.0769C3.75 17.2376 3.75 17.318 3.75308 17.3859C3.82336 18.9359 5.06405 20.1766 6.61411 20.2469C6.68202 20.25 6.76237 20.25 6.92308 20.25M13.9038 3.75L13.9556 3.75011C14.7338 3.75664 15.479 4.06531 16.0339 4.61093L16.0706 4.64748L18.8441 7.42104C19.363 7.93989 19.6224 8.19932 19.8079 8.50207C19.9724 8.77048 20.0936 9.06312 20.1671 9.36923C20.1958 9.48878 20.2146 9.61093 20.2268 9.75M6.92308 20.25V16C6.92308 14.5999 6.92308 13.8998 7.19556 13.365C7.43524 12.8946 7.8177 12.5122 8.2881 12.2725C8.82288 12 9.52295 12 10.9231 12H13.0769C14.245 12 14.9259 12 15.43 12.1582M6.92308 20.25H9.75" stroke="currentColor" stroke-width="1.5" stroke-linecap="round" stroke-linejoin="round"/>
<path d="M21.796 12.204C21.3657 11.7738 20.813 11.5408 20.25 11.5049C19.5846 11.4625 18.905 11.6956 18.3965 12.204L16.9269 13.6737L12.6205 17.98C12.2969 18.3037 12.0692 18.7155 11.9859 19.1521L11.7763 20.25L11.5145 21.6212C11.4685 21.862 11.5316 22.1122 11.7097 22.2903C11.8878 22.4684 12.138 22.5315 12.3788 22.4855L14.8479 22.0141C15.2845 21.9308 15.6963 21.7031 16.02 21.3795L21.796 15.6035C22.7347 14.6647 22.7347 13.1428 21.796 12.204Z" fill="currentColor"/>
</svg>

<svg xmlns="http://www.w3.org/2000/svg" width="24" height="24" fill="none" viewBox="0 0 24 24"><path stroke="currentColor" stroke-linecap="round" stroke-linejoin="round" stroke-width="1.5" d="M7.558 3.75v1.27c0 1.094 0 1.641.208 2.061a2 2 0 0 0 .903.903c.42.208.967.208 2.062.208s1.642 0 2.062-.208a2 2 0 0 0 .902-.903c.209-.42.209-.967.209-2.062V3.75m-6.346 0h6.346m-6.346 0c-.751 0-1.126 0-1.438.067A3 3 0 0 0 3.817 6.12c-.067.312-.067.687-.067 1.438v9.519c0 .16 0 .241.003.309a3 3 0 0 0 2.861 2.86c.068.004.148.004.31.004m6.98-16.5h.052a3 3 0 0 1 2.078.86l.037.037 2.773 2.774c.519.519.778.778.964 1.081a3 3 0 0 1 .36.867c.028.12.047.242.059.381M6.923 20.25V16c0-1.4 0-2.1.273-2.635a2.5 2.5 0 0 1 1.092-1.092C8.823 12 9.523 12 10.923 12h2.154c1.168 0 1.849 0 2.353.158M6.923 20.25H9.75"/><path fill="currentColor" d="M21.796 12.204a2.4 2.4 0 0 0-1.546-.7 2.4 2.4 0 0 0-1.854.7l-1.47 1.47-4.305 4.306a2.3 2.3 0 0 0-.635 1.172l-.21 1.098-.261 1.371a.74.74 0 0 0 .195.67.74.74 0 0 0 .669.194l2.469-.47a2.3 2.3 0 0 0 1.172-.636l5.776-5.776a2.404 2.404 0 0 0 0-3.399"/></svg>
